X: 23
T:Durham Rangers
% Nottingham Music Database
S:Lesley Dolman, via EF
M:4/4
L:1/4
K:D
F/2G/2|"D"A/2B/2A/2F/2 Ad/2e/2|"D"f/2g/2e/2f/2 dd/2A/2|\
"G"B/2c/2d/2B/2 "D"A/2B/2A/2F/2|"Em"GE "A7"EF/2G/2|
"D"A/2B/2A/2F/2 Ad/2e/2|"D"f/2g/2e/2f/2 dd/2A/2|\
"G"B/2c/2d/2B/2 "A7"A/2B/2A/2G/2|"D"FD D:||:
a/2g/2|"D"f/2e/2f/2g/2 a/2f/2d/2f/2|"A7"e/2d/2c/2B/2 "D"A/2d/2f/2a/2|\
"G"gb/2g/2 "D"fa/2f/2|"Em"ge "A7"eF/2G/2|
"D"A/2B/2A/2F/2 Ad/2e/2|"D"f/2g/2e/2f/2 dd/2A/2|\
"G"B/2c/2d/2B/2 "A7"A/2B/2A/2G/2|"D"FD D:|


